X: 1278
T: An Fathach Tireannach
R: jig
M: 6/8
K: Dmajor
|:Adc deg|~f3 gec|Adc dfa|ged ~B3|
Adc deg|~f3 gfe|~f3 gfe|1 dce d2B:|2 dce d2f||
|:agf gfe|fag fed|agf gge|fed efg|
agf gge|fag fed|ede gfe|1 dce d2f:|2 dce dcB||

